packages/icons/src/emoji/svg/bear.svg

<svg width="120" height="120" viewBox="0 0 120 120" fill="none" xmlns="http://www.w3.org/2000/svg">
<path d="M119.578 61.8938C119.1 53.7375 116.794 45.4594 113.006 37.9406C113.138 37.7719 113.259 37.5938 113.381 37.4156L113.747 36.8906C114.591 35.5594 115.256 34.125 115.847 32.6719C118.547 25.9125 118.603 18.3563 115.2 12.8344C112.8 8.92501 103.266 -1.20936 88.2281 7.35001C84.6844 9.37501 81.3938 9.50626 79.5188 9.35626C73.2563 7.45314 66.5906 6.47814 59.9813 6.48751C52.7813 6.46876 45.5156 7.62189 38.7656 9.88126C36.8719 10.0125 33.6375 9.83439 30.1875 7.86564C15.15 -0.703112 5.62502 9.44064 3.20627 13.35C2.16564 15.0375 1.38752 17.1 0.984391 19.0406C0.243766 22.7438 0.562517 26.8594 1.64064 30.4688C2.22189 32.3906 3.07502 34.2 3.97502 36C4.55627 37.1906 5.16564 38.3719 5.90627 39.4594C5.98127 39.5813 6.03752 39.6938 6.10314 39.8063C2.85939 46.8188 0.843767 54.4031 0.412516 61.8938C-0.478109 77.1469 2.19377 92.5031 14.5313 103.116C21.3656 108.984 29.8594 112.978 38.625 115.125C41.9531 115.95 50.55 117.863 59.5781 117.863C68.5875 117.863 78.0375 115.95 81.3656 115.125C90.1219 112.978 98.625 108.994 105.459 103.116C117.797 92.5125 120.488 77.1469 119.578 61.8938Z" fill="#855C52"/>
<path d="M26.484 73.9688C29.9841 73.9688 32.8215 70.5689 32.8215 66.375C32.8215 62.1811 29.9841 58.7812 26.484 58.7812C22.9839 58.7812 20.1465 62.1811 20.1465 66.375C20.1465 70.5689 22.9839 73.9688 26.484 73.9688Z" fill="#2F2F2F"/>
<path d="M59.6998 102.3C47.1279 102.3 36.9561 97.7531 36.9561 83.775C36.9561 69.7875 47.1279 58.4531 59.6998 58.4531C72.2623 58.4531 82.4623 69.7875 82.4623 83.775C82.4623 97.7531 72.2623 102.3 59.6998 102.3Z" fill="white"/>
<path d="M92.8404 73.9687C89.3529 73.9687 86.5029 70.5749 86.5029 66.3843C86.5029 62.1843 89.3529 58.7905 92.8404 58.7905C96.3466 58.7905 99.1873 62.1937 99.1873 66.3843C99.1873 70.5749 96.3466 73.9687 92.8404 73.9687ZM59.6998 83.4749C65.6623 83.4749 70.4998 79.5843 70.4998 74.7843C70.4998 69.9749 65.6623 66.0937 59.6998 66.0937C53.7373 66.0937 48.9185 69.9843 48.9185 74.7843C48.9185 79.5843 53.7373 83.4749 59.6998 83.4749ZM69.3185 88.9405C69.1966 89.1093 66.3654 93.0093 59.6998 93.0093C53.081 93.0093 50.2404 89.1374 50.1091 88.9405C49.4529 88.003 48.1685 87.7499 47.2123 88.3968C46.9855 88.5505 46.7913 88.7474 46.6407 88.9762C46.4901 89.2051 46.3862 89.4614 46.3348 89.7305C46.2834 89.9996 46.2856 90.2761 46.3413 90.5444C46.3969 90.8126 46.505 91.0672 46.6591 91.2937C46.8185 91.5374 50.7466 97.1718 59.6998 97.1718C68.6623 97.1718 72.5904 91.528 72.7591 91.2937C73.3966 90.3468 73.1623 89.0718 72.2154 88.4155C71.2779 87.7687 69.9748 88.0124 69.3185 88.9405Z" fill="#2F2F2F"/>
<path d="M27.7691 19.8751C26.5785 21.1313 24.7504 22.2563 23.8785 23.0438C21.9285 24.8063 20.4566 27.122 19.0785 29.3345C17.0816 32.5313 14.541 30.572 13.1723 28.0782C13.0129 27.797 12.8723 27.5063 12.741 27.2157C12.2348 26.0063 11.9629 24.6845 11.9629 23.372C11.9629 18.0376 16.2285 13.7251 21.4785 13.7251C23.2785 13.7251 25.4254 14.4282 27.0191 15.3845C27.1785 15.4782 27.3754 15.5626 27.516 15.6657C29.5879 17.0532 29.0441 18.5345 27.7691 19.8751ZM106.604 27.2157C106.557 27.3282 106.5 27.4501 106.435 27.572C105.141 30.2907 102.394 32.747 100.266 29.3438C98.8785 27.1313 97.416 24.8157 95.466 23.0532C94.5941 22.2657 92.7566 21.1407 91.566 19.8845C90.3004 18.5438 89.7566 17.0626 91.8285 15.6751C92.0816 15.5063 92.3723 15.3563 92.6723 15.197C94.2379 14.3438 96.1973 13.7345 97.866 13.7345C103.125 13.7345 107.382 18.047 107.382 23.3813C107.372 24.6938 107.119 26.0063 106.604 27.2157Z" fill="#B89278"/>
</svg>

<svg xmlns="http://www.w3.org/2000/svg" fill="none" aria-hidden="true" data-slot="icon" viewBox="0 0 120 120"><path fill="#855C52" d="M119.578 61.894c-.478-8.157-2.784-16.435-6.572-23.953.132-.17.253-.347.375-.525l.366-.525c.844-1.332 1.509-2.766 2.1-4.22 2.7-6.758 2.756-14.315-.647-19.837-2.4-3.909-11.934-14.043-26.972-5.484-3.544 2.025-6.834 2.156-8.71 2.006-6.262-1.903-12.927-2.878-19.537-2.868-7.2-.02-14.465 1.134-21.215 3.393-1.894.131-5.128-.047-8.578-2.015C15.15-.704 5.625 9.44 3.206 13.35c-1.04 1.688-1.818 3.75-2.222 5.69-.74 3.704-.421 7.82.657 11.429C2.22 32.39 3.075 34.2 3.975 36c.581 1.19 1.19 2.372 1.931 3.46.075.121.132.234.197.346C2.86 46.82.843 54.403.413 61.894c-.891 15.253 1.78 30.61 14.118 41.222 6.835 5.868 15.328 9.862 24.094 12.009 3.328.825 11.925 2.738 20.953 2.738 9.01 0 18.46-1.913 21.788-2.738 8.756-2.147 17.259-6.131 24.093-12.009 12.338-10.603 15.029-25.97 14.119-41.222"/><path fill="#2F2F2F" d="M26.484 73.969c3.5 0 6.337-3.4 6.337-7.594s-2.837-7.594-6.337-7.594-6.338 3.4-6.338 7.594 2.838 7.594 6.338 7.594"/><path fill="#fff" d="M59.7 102.3c-12.572 0-22.744-4.547-22.744-18.525 0-13.988 10.172-25.322 22.744-25.322 12.562 0 22.762 11.334 22.762 25.322 0 13.978-10.2 18.525-22.762 18.525"/><path fill="#2F2F2F" d="M92.84 73.969c-3.487 0-6.337-3.394-6.337-7.585 0-4.2 2.85-7.593 6.337-7.593 3.507 0 6.347 3.403 6.347 7.593s-2.84 7.585-6.347 7.585M59.7 83.475c5.962 0 10.8-3.89 10.8-8.69 0-4.81-4.838-8.691-10.8-8.691s-10.782 3.89-10.782 8.69 4.82 8.69 10.782 8.69m9.618 5.466c-.121.168-2.953 4.068-9.618 4.068-6.619 0-9.46-3.872-9.59-4.068a2.1 2.1 0 0 0-2.898-.544 2.084 2.084 0 0 0-.553 2.897c.16.243 4.088 5.878 13.04 5.878 8.963 0 12.891-5.644 13.06-5.878a2.077 2.077 0 0 0-.544-2.879c-.937-.646-2.24-.403-2.897.525"/><path fill="#B89278" d="M27.77 19.875c-1.192 1.256-3.02 2.381-3.892 3.169-1.95 1.762-3.421 4.078-4.8 6.29-1.996 3.197-4.537 1.238-5.906-1.256-.16-.281-.3-.572-.431-.862a10 10 0 0 1-.778-3.844c0-5.334 4.266-9.647 9.516-9.647 1.8 0 3.946.703 5.54 1.66.16.093.356.178.497.28 2.072 1.388 1.528 2.87.253 4.21m78.834 7.34a4 4 0 0 1-.169.357c-1.294 2.719-4.041 5.175-6.169 1.772-1.388-2.213-2.85-4.528-4.8-6.29-.872-.788-2.71-1.913-3.9-3.17-1.266-1.34-1.81-2.821.263-4.209.253-.169.543-.319.843-.478 1.566-.853 3.525-1.462 5.194-1.462 5.259 0 9.516 4.312 9.516 9.646a10 10 0 0 1-.778 3.835"/></svg>
